X:1
T:La Violette
T:La Violette
T:op 99-1
T:L. Streabbog
C:L. Streabbog
%%score { 1 | 2 }
L:1/8
Q:1/4=125
M:3/4
K:F
V:1 treble nm="Piano" snm="Pno."
V:2 bass 
V:1
!p! (c4 a2 | f2) z4 | (c4 a2 | f2) z4 |!f! (eg) .c'2 .c'2 | !>!c'6 | (FA) .c2 .c2 | c6 | %8
!p! (c4 a2 | f2) z4 | (c4 a2 | f2) z4 |!f! (eg) .c'2 .c'2 | c'6 | (=Bd) .g2 .g2 | .c2 z4 :: %16
{/^c'} .d'2{/c'} .d'2{/c'} .d'2 | (!>!e'4 d'2) |{/^g} .a2{/g} .a2{/g} .a2 | (!>!d'4 c'2) | %20
{/^f} .g2{/^f} .g2{/^f} .g2 | (!>!d'4 c'2) |{/e} .f2{/e} .f2{/e} .f2 | (=b4 c'2) | %24
{/^c'} .d'2{/c'} .d'2{/c'} .d'2 | (!>!e'4 d'2) |{/^g} .a2{/g} .a2{/g} .a2 | (!>!d'4 c'2) | %28
{/^f} .g2{/f} .g2{/f} .g2 | (!>!c'4 e2) | .f2!f! z2 .[Acf]2 | [Acf]2 z4!fine! :|[K:C] !^!G6 | %33
 !^!G6 | G2 GG G2 |!>(! G2 G2 G2!>)! |:!p! .[EG].[EG] .[EG]2 ([Ec]2 | [FB]).[FB] .[FB]2 z2 | %38
 .[FG].[FG] .[FG]2 ([Fd]2 | [Ec]).[Ec] .[Ec]2 z2 |!>(! (G4 e2)!>)! |!>(! (^F4 d2)!>)! | %42
!>(! (F4 d2)!>)! |!>(! (E4 c2)!>)! |!p! .[EG].[EG] .[EG]2 ([Ec]2 | [FB]).[FB] .[FB]2 z2 | %46
 .[FG].[FG] .[FG]2 ([Fd]2 | [Ec]).[Ec] .[Ec]2 z2 |!>(! (G4 e2)!>)! |!>(! (^F4 d2)!>)! | %50
!>(! (F4 d2)!>)! | c2 z4!D.C.! :| %52
V:2
 F,2 [A,C]2 [A,C]2 | F,2 [A,C]2 [A,C]2 | F,2 [A,C]2 [A,C]2 | F,2 [A,C]2 [A,C]2 | %4
 .C,2 .[B,C]2 .[B,C]2 | .C,2 .[B,C]2 .[B,C]2 | .F,2 .[A,C]2 .[A,C]2 | .F,2 .[A,C]2 .[A,C]2 | %8
 F,2 [A,C]2 [A,C]2 | F,2 [A,C]2 [A,C]2 | F,2 [A,C]2 [A,C]2 | F,2 [A,C]2 [A,C]2 | %12
 .G,2 .[CE]2 .[CE]2 | .G,2 .[CE]2 .[CE]2 | .G,2 .[DF]2 .[DF]2 | .[CE]2 z4 :: %16
!p! .C,2 .[B,C]2 .[B,C]2 | C,2 [B,C]2 [B,C]2 | .F,2 .[A,C]2 .[A,C]2 | F,2 [A,C]2 [A,C]2 | %20
 .C,2 .[B,C]2 .[B,C]2 | C,2 [B,C]2 [B,C]2 | .F,2 .[A,C]2 .[A,C]2 | F,2 [A,C]2 [A,C]2 | %24
 .C,2 .[B,C]2 .[B,C]2 | C,2 [B,C]2 [B,C]2 | .F,2 .[A,C]2 .[A,C]2 | F,2 [A,C]2 [A,C]2 | %28
 C,2 [B,C]2 [B,C]2 | .C,2 .[B,C]2 .[B,C]2 | .[F,A,C]2 z2 .[F,A,C]2 | [F,A,C]2 z4 :|[K:C] [G,DF]6 | %33
 [G,^CE]6 | [G,DF]2 z4 | z6 |: C,2 [E,G,]2 [E,G,]2 | D,2 [F,G,]2 [F,G,]2 | G,,2 [F,G,]2 [F,G,]2 | %39
 C,2 [E,G,]2 [E,G,]2 | C,2 [E,G,]2 [E,G,]2 | D,2 [A,C]2 [A,C]2 | G,,2 [F,G,B,]2 [F,G,B,]2 | %43
 C,2 [E,G,C]2 [E,G,C]2 | C,2 [E,G,]2 [E,G,]2 | D,2 [F,G,]2 [F,G,]2 | G,,2 [F,G,]2 [F,G,]2 | %47
 C,2 [E,G,]2 [E,G,]2 | C,2 [E,G,]2 [E,G,]2 | D,2 [A,C]2 [A,C]2 | G,,2 [F,G,]2 [F,G,]2 | %51
 [C,E,G,]2 z4 :| %52

